X:1
T:Gloaming, 87.87 D
T:Old Ballad Melody
T:Gloaming, 87.87 D
T:Public Domain
C:Old Ballad Melody
Z:Public Domain
%%score ( 1 2 ) ( 3 4 )
L:1/8
M:none
K:F
V:1 treble 
V:2 treble 
V:3 bass 
V:4 bass 
V:1
 [Fc]3 [Fd] [Fc]2 [FA]2 | [Ec]3 [GB] [GB]2 [FA]2 | [DG]2 [B,D]2 [CF]2 [FA]2 | E2 A[GB] [FA]4 | %4
 [Fc]3 [Fd] [Fc]2 [FA]2 | [Ec]3 [GB] [GB]2 [FA]2 | [DG]2 [B,D]2 [CF]2 [CE]2 | [EA]3 [EG] F4 | %8
 [_EF]3 [EG] [DG]2 [DF]2 | [_EF]2 GA [DG]2 [DF]2 | [FG]3 [FG] [FA]2 [Fc]2 | [Fd]2 cA [EG]4 | %12
 [Fc]3 [Fd] [Fc]2 [FA]2 | [Ec]3 [GB] [GB]2 [FA]2 | [DG]2 [B,D]2 [CF]2 [CE]2 | [EA]3 [EG] F4 |] %16
V:2
 x8 | x8 | x8 | c3 x5 | x8 | x8 | x8 | x8 | x8 | x2 _E2 x4 | x8 | x2 F2 x4 | x8 | x8 | x8 | %15
 x4 F4 |] %16
V:3
 [F,A,]3 [F,B,] [F,A,]2 [F,C]2 | [C,C]3 [E,C] [F,C]2 [F,C]2 | [B,,G,]2 [G,,G,]2 [C,A,]2 [C,C]2 | %3
 G,2 C[C,C] [F,C]4 | [F,A,]3 [F,B,] [F,A,]2 [F,C]2 | [C,C]3 [E,C] [F,C]2 [F,C]2 | %6
 [B,,G,]2 [G,,G,]2 [C,A,]2 [C,G,]2 | [C,C]3 [C,B,] [F,,F,A,]4 | [F,A,]3 [F,A,] [B,,B,]2 [B,,B,]2 | %9
 [F,A,]2 [F,C]2 [B,,B,]2 [B,,B,]2 | [G,=B,]3 [G,B,] [C,C]2 [C,A,]2 | [B,,B,]2 [C,A,]2 [C,C]4 | %12
 [F,A,]3 [F,B,] [F,A,]2 [F,C]2 | [C,C]3 [E,C] [F,C]2 [F,C]2 | [B,,G,]2 [G,,G,]2 [C,A,]2 [C,G,]2 | %15
 [C,C]3 [C,B,] [F,,F,A,]4 |] %16
V:4
 x8 | x8 | x8 | C,3 x5 | x8 | x8 | x8 | x8 | x8 | x8 | x8 | x8 | x8 | x8 | x8 | x8 |] %16

